X: 18614
T: I Will If I Can
R: jig
M: 6/8
K: Amajor
Ace fec|efe ecB|Ace fec|fec ~B3|Ace fec|
efg ~a3|1 efa fec|BcB ~A3:|2 fec fec|~B3 ~A3||
aee fec|fec efg|aee fec|fec ~B3|
aee ~f3|efg ~a3|~a3 fec|1 BcB Ace:|2 ~B3 A3||

